src/assets/buildinginpublic/logo-posthog.svg

<svg fill="none" height="20" viewBox="0 0 20 20" width="20" xmlns="http://www.w3.org/2000/svg"><path d="m0 12.1149 3.25032 3.2459h-3.25032zm0-.8115 4.0629 4.0574h3.25035l-7.31325-7.30338zm0-4.05748 8.12583 8.11488h3.25027l-11.3761-11.3608zm4.0629 0 8.1258 8.11488v-3.2459l-8.1258-8.1149zm4.06293-3.24592v3.24592l4.06287 4.05748v-3.24598z" fill="#f9bd2b"/><path d="m19.5042 14.0625c-.8327 0-1.631-.3305-2.2193-.918l-4.5193-4.51316v6.72946h6.7386z" fill="#000"/><path d="m14.7145 14.0625c.359 0 .65-.2907.65-.6492s-.291-.6492-.65-.6492-.65.2907-.65.6492.291.6492.65.6492z" fill="#fff"/><g clip-rule="evenodd" fill-rule="evenodd"><path d="m4.0629 8.05742-4.0629-4.05742v3.24592l4.0629 4.05748zm-4.0629 7.30338h3.25032l-3.25032-3.2459zm0-4.0574v-3.24598l4.0629 4.05748v3.2459z" fill="#1d4aff"/><path d="m8.12543 8.05742-4.06293-4.05742v3.24592l4.06293 4.05748zm-4.06293 0v3.24598l4.06293 4.0574v-3.2459zm3.25035 7.30338h-3.25035v-3.2459z" fill="#f54e00"/></g></svg>

<svg width="20" height="20" viewBox="0 0 20 20" fill="none" xmlns="http://www.w3.org/2000/svg">
<path d="M0 12.1149L3.25032 15.3608H0V12.1149ZM0 11.3034L4.0629 15.3608H7.31325L0 8.05742V11.3034ZM0 7.24592L8.12583 15.3608H11.3761L0 4V7.24592ZM4.0629 7.24592L12.1887 15.3608V12.1149L4.0629 4V7.24592ZM8.12583 4V7.24592L12.1887 11.3034V8.05742L8.12583 4Z" fill="#F9BD2B"/>
<path d="M19.5042 14.0625C18.6715 14.0625 17.8732 13.732 17.2849 13.1445L12.7656 8.63134V15.3608H19.5042V14.0625Z" fill="black"/>
<path d="M14.7145 14.0625C15.0735 14.0625 15.3645 13.7718 15.3645 13.4133C15.3645 13.0548 15.0735 12.7641 14.7145 12.7641C14.3555 12.7641 14.0645 13.0548 14.0645 13.4133C14.0645 13.7718 14.3555 14.0625 14.7145 14.0625Z" fill="white"/>
<path fill-rule="evenodd" clip-rule="evenodd" d="M4.0629 8.05742L0 4V7.24592L4.0629 11.3034V8.05742ZM0 15.3608H3.25032L0 12.1149V15.3608ZM0 11.3034V8.05742L4.0629 12.1149V15.3608L0 11.3034Z" fill="#1D4AFF"/>
<path fill-rule="evenodd" clip-rule="evenodd" d="M8.12543 8.05742L4.0625 4V7.24592L8.12543 11.3034V8.05742ZM4.0625 8.05742V11.3034L8.12543 15.3608V12.1149L4.0625 8.05742ZM7.31285 15.3608H4.0625V12.1149L7.31285 15.3608Z" fill="#F54E00"/>
</svg>
